X: 29669
T: Norwegian M.T.B.
R: waltz
M: 3/4
K: Gmajor
G2 B2 e2|d3 d d2|G2 B2 e2|d3 d d2|
D2F2A2|d3 d ^cd|e2 d2 c2|B3 B B2|
G2 B2 e2|d3 d d2|G2 B2 e2|d3 d d2|
D2 F2 A2|d3 d d2|c2 B2 A2|G4 z2:|
|:G2 B2 d2|g3 g fg|a2 g2 e2|e2 d^c d2|
D2 F2 A2|d3 d ^cd|e2 d2 c2|B3 B B2|
G2 B2 d2|g3 g fg|a2 g2 e2|e2 d^c d2|
D2 F2 A2|d3 d d2|c2 B2 A2|G4 z2:|

